switch.svg

<svg viewBox="0 0 24 24" xmlns="http://www.w3.org/2000/svg"><path d="M14.1509 24L17.8491 24C21.2453 24 24 21.2453 24 17.8491L24 6.15094C24 2.75472 21.2453 3.93616e-07 17.8491 3.93616e-07L14.1321 3.93616e-07C14.0377 3.93616e-07 13.9811 0.0754721 13.9811 0.150944L13.9811 23.8302C13.9811 23.9245 14.0566 24 14.1509 24ZM18.717 10.7736C20.0566 10.7736 21.1509 11.8679 21.1509 13.2075C21.1509 14.5472 20.0566 15.6415 18.717 15.6415C17.3774 15.6415 16.283 14.5472 16.283 13.2075C16.3019 11.8679 17.3774 10.7736 18.717 10.7736ZM3.73585 7.20755C3.73585 8.45283 4.75472 9.4717 6 9.4717C7.24528 9.4717 8.26415 8.45283 8.26415 7.20755C8.26415 5.96226 7.24528 4.9434 6 4.9434C4.73585 4.9434 3.73585 5.9434 3.73585 7.20755ZM11.3962 0L6.15094 0C2.75472 0 8.71577e-07 2.75472 8.71577e-07 6.15094L8.71577e-07 17.8491C8.71577e-07 21.2453 2.75472 24 6.15094 24L11.3962 24C11.4906 24 11.566 23.9245 11.566 23.8302L11.566 0.16981C11.566 0.0754708 11.4906-8.54708e-07 11.3962 0ZM9.64151 22.0755L6.15094 22.0755C5.01887 22.0755 3.96226 21.6415 3.16981 20.8302C2.37736 20.0377 1.92453 18.9811 1.92453 17.8491L1.92453 6.15094C1.92453 5.01887 2.35849 3.96226 3.16981 3.16981C3.96226 2.37736 5.01887 1.92453 6.15094 1.92453L9.64151 1.92453L9.64151 22.0755Z" fill="#e60012"/></svg>

<svg viewBox="0 0 24 24" xmlns="http://www.w3.org/2000/svg"><path d="M14.15 24h3.7A6.152 6.152 0 0 0 24 17.85V6.15A6.152 6.152 0 0 0 17.85 0h-3.718a.149.149 0 0 0-.15.15v23.68c0 .095.075.17.169.17Zm4.567-13.226a2.44 2.44 0 0 1 2.434 2.434 2.44 2.44 0 0 1-2.434 2.434 2.44 2.44 0 0 1-2.434-2.434c.019-1.34 1.094-2.434 2.434-2.434ZM3.736 7.208A2.27 2.27 0 0 0 6 9.472a2.27 2.27 0 0 0 2.264-2.264A2.27 2.27 0 0 0 6 4.943c-1.264 0-2.264 1-2.264 2.265ZM11.396 0H6.151A6.152 6.152 0 0 0 0 6.15v11.7A6.152 6.152 0 0 0 6.15 24h5.246a.17.17 0 0 0 .17-.17V.17a.17.17 0 0 0-.17-.17ZM9.642 22.076H6.15A4.12 4.12 0 0 1 3.17 20.83a4.197 4.197 0 0 1-1.245-2.98V6.15A4.12 4.12 0 0 1 3.17 3.17a4.197 4.197 0 0 1 2.98-1.245h3.492v20.15Z" fill="#e60012"/></svg>
